!! 00000] TT[WS
!!!OTL: Qing ge
!!!ARE: Asia, China, Shanxi Lishan
!! Ethnic Group: Han
!! WI, 272 (1)
!!!SCT: J0324
!!!YEM: Copyright 1995, estate of Helmut Schaffrath.
**kern
*ICvox
*Ivox
*M2/4
*k[f#c#g#]
*A:
{4ee
8ee
8ff#
=1
4ee
8dd
8ee
=2
4b
8a
8gn
=3
2e
=4
4a
8g#
8f#
=5
4e
8a
8b
=6
4ee
8dd
8ee}
=7
{4b
8a
8f#
=8
4e
8a
8b
=9
4ee
8dd
8ee
=10
4b
8a
8f#
=11
4e
8e
8a
=12
8b
8a
8g#
8f#
=13
2e}
==
!!!AGN: Xiaodiao. Qingge
!!!ONB: ESAC (Essen Associative Code) Database: CHINA
!!!AMT: simple duple
!!!AIN: vox
!!!EED: Helmut Schaffrath
!!!EEV: 1.0
*-
